X: 3
T: Cat That Ate The Candle, The
Z: Erik-Fiddler
S: https://thesession.org/tunes/355#setting51791
R: reel
M: 4/4
L: 1/8
K: Emin
|:EB ~(3B/A/B/B BAB^c|d2AF DEFD|EA A/A/A BAGF|1 GBAF GEEB:|2 GBAF GEEz||
Beed Begb|afge fdd2|ecdB cBAF|GBAF GEEz|
Be e/e/e Begb|a/b/a ge fddf|e2dB cBAF|GBAF GEEB||

%-------------------- TUNE SEPARATOR --------------------%

